X: 9
T:Ho Ro My Nut Brown Maiden
% Nottingham Music Database
S:KCC p8, via EF
M:4/4
L:1/4
K:C
P:A
G|"C"c3/2B/2 "G7"AG|"C"c2 "G7"GG|"C"c3/2d/2 fe|"Dm G7"d3f|"C"e/2g3/2 e/2g3/2|\
"C"G2 "F"cd|"G7"e3/2e/2 fd|"C"c3:|
P:B
e/2f/2|"C"ga ge|"C"g2 ef|"C"ga ge|"Dm"d2 "G7"df|"C"e/2g3/2 e/2g3/2|\
"C"G2 "Am"cd|"Dm"e3/2e/2 "G7"fd|"C"c3:|<end>
<start>
